-----BEGIN PGP SIGNATURE-----

wsG7BAABCgBvBYJqu8DsCRBk7XsdzOccskcUAAAAAAAeACBzYWx0QG5vdGF0aW9u
cy5zZXF1b2lhLXBncC5vcmefrZWwEkogQlGj6WsaFgV2L6tsVFYJXt5ih/B/QqYt
eBYhBMRu0/LL79of2q2kQmTtex3M5xyyAABYmA//VMrULNirYiEXHp/RzLiEvkTx
LtDfMPw3oJgLdYSW8oeAS3uKHnhRE9/NQxC9bqfOt1S8pO+HgrmlYrNCvvEI7yCL
jsIfqTs3+F7cutI1xBMuoRj3hon91KCXXNDXbvBRAtuMHOe5+22Ustue+6Pfs8Sj
SbVVBzVty/vD3GcDrPS1/Zysd0WNQwl6YRIg+WhCYYW7T6SEPt7bFP50uwyhwmdG
JNM67LNFz/vGUCXCWdXMwyqhT017d3r5KW1ylI44usnLdThl1bTERx1LtDq6+Xrh
g28ABS1XKpmEqCVQY6c3odtx2IPUb+4gdPTaRHhMkfA9gN6HhUfZneLsoa9lmReF
5IHx3KFmfjObhHr2v7LgbxeT7zt3xcvXmmIo/FmcAg5wlRmcDJN16ZzybSPa03PB
fSW+M71kZcPts+WpHVuI/MRTKInQMwpUbK/SpP7qBZIRcNIzc1PzJJoQZzHbNczp
aWE7EumR9/3Tr2h79LCv6szqWEYZgPLYV+tJKB2zeAh+j0IqNaDNQaXGiXfwsKuZ
cpWaP0VnR3NteWqSsFuNkSwBTk0cDqktVhrb9ChKeHqnEiIMXPMagmR2P665aH9V
+f1Av/DiuHVsg+XB435NCLglkEQ8J6Ti851kjLjM6Wl1Yebtawm1OkIJwQ/KzvT3
CRR07wWBszRCTAR6noo=
=SCg0
-----END PGP SIGNATURE-----
